!!!SOCIAL_FUNCTION:	isleta
!!!PDT:	1957
!!!OTL: No_57_Song_of_the_Horned_Toad_When_Putting_Her_Children_to_Sleep.krn
!!!LING_GROUP: Keresan
!!!LANG: Tone
!!!REG: Southwest
**kern
*staff1
=1-
=
*clefF4
*k[f#]
*M2/4
4.d\
8e\
=2
8e\L
[8d\J
8d\L]
8B\J
=3
4B\
4A\
=4
8G\L
[8E\J
4E\_
=5
2E\]
=6
4.A\
8B\
=7
8B\L
[8A\J
8A\L]
8G\J
=8
4E\
4E\
=9
4D\
4r
=10
4.D\
8E\
=11
*M3/4
8E\L
[8D\J
8D\L]
8D\J
4D\
=12
*M2/4
8E\L
8D\J
4D\
=13
*M3/4
2D\
4r
=14:|!
*M2/4
4.A\
8B\
=15
8B\L
[8A\J
8A\L]
8G\J
=16
4E\
4E\
=17
4D\
4r
=18
4.D\
8E\
=19
*M3/4
8E\L
[8D\J
8D\L]
8D\J
4D\
=20
*M2/4
8E\L
8D\J
4D\
=21
*M2/4
2D\
==
*-
